argon/scalable/apps/org.gnome.Screenshot.svg

<ns0:svg xmlns:ns0="http://www.w3.org/2000/svg" xmlns:ns1="http://sodipodi.sourceforge.net/DTD/sodipodi-0.dtd" xmlns:ns2="http://www.inkscape.org/namespaces/inkscape" ns1:docname="org.gnome.Screenshot.svg" id="svg8" version="1.1" viewBox="0 0 67.733332 67.733335" height="256" width="256">
  <ns0:defs id="defs2" />
  <ns1:namedview ns2:window-maximized="1" ns2:window-y="27" ns2:window-x="1920" ns2:window-height="1016" ns2:window-width="1920" units="px" showgrid="false" ns2:document-rotation="0" ns2:current-layer="g1156" ns2:document-units="px" ns2:cy="111.89965" ns2:cx="127.63277" ns2:zoom="2.8284271" ns2:pageshadow="2" ns2:pageopacity="0.0" borderopacity="1.0" bordercolor="#666666" pagecolor="#ffffff" id="base" ns2:pagecheckerboard="0" />
  <ns0:g ns2:groupmode="layer" id="layer1" ns2:label="Background" style="display:inline">
    <ns0:g ns2:label="Shadow" id="layer10" ns2:groupmode="layer" style="display:inline;opacity:0.4">
      <ns0:path id="path839" style="display:inline;opacity:1;fill:#000000;fill-opacity:1;stroke-width:0.0246944;stroke-miterlimit:4;stroke-dasharray:none;paint-order:stroke fill markers" d="m 4.2333333,34.925001 v 24.641082 c 0,2.765599 2.2266527,4.992251 4.9922512,4.992251 H 58.50775 c 2.765599,0 4.99225,-2.226652 4.99225,-4.992251 V 34.925001 Z" />
    </ns0:g>
    <ns0:g style="display:inline" ns2:label="Colour" id="g1174" ns2:groupmode="layer">
      <ns0:path id="rect1168" style="display:inline;fill:#00b9ff;fill-opacity:1;stroke-width:0.0933332;stroke-miterlimit:4;stroke-dasharray:none;paint-order:stroke fill markers" d="M 34.869141,16 C 24.416485,16 16,24.416483 16,34.869141 V 128 221.13086 C 16,231.58352 24.416485,240 34.869141,240 H 221.13086 C 231.58352,240 240,231.58352 240,221.13086 V 128 34.869141 C 240,24.416483 231.58352,16 221.13086,16 Z" transform="scale(0.26458333)" />
    </ns0:g>
    <ns0:g ns2:groupmode="layer" id="layer2" ns2:label="Highlight" style="opacity:0.1">
      <ns0:path d="m 9.2257931,4.2333333 c -2.7655986,0 -4.9924598,2.2268608 -4.9924598,4.9924598 v 1.0583329 c 0,-2.7655979 2.2268612,-4.9924597 4.9924598,-4.9924597 H 58.50754 c 2.765599,0 4.99246,2.2268618 4.99246,4.9924597 V 9.2257931 c 0,-2.765599 -2.226861,-4.9924598 -4.99246,-4.9924598 z" style="display:inline;opacity:1;fill:#ffffff;fill-opacity:1;stroke-width:0.0246944;stroke-miterlimit:4;stroke-dasharray:none;paint-order:stroke fill markers" id="path955" />
    </ns0:g>
  </ns0:g>
  <ns0:g ns2:label="Graphic" id="g1156" ns2:groupmode="layer" style="display:inline">
    <ns0:rect style="opacity:1;fill:#ffffff;fill-opacity:1;stroke:none;stroke-width:1.25992;stroke-linecap:butt;stroke-linejoin:miter;stroke-miterlimit:4;stroke-dasharray:none;stroke-dashoffset:0;paint-order:markers fill stroke" id="rect839" width="37.041668" height="37.041668" x="14.816667" y="14.816667" />
    <ns0:g id="g1361" style="fill:#666666">
      <ns0:path id="rect1197" style="fill:#666666;fill-opacity:1;stroke:none;stroke-width:9.27969;stroke-linecap:butt;stroke-linejoin:miter;stroke-miterlimit:4;stroke-dasharray:none;stroke-dashoffset:0;paint-order:markers fill stroke" d="m 189,161 c 0,9.33333 0,18.66667 0,28 -9.33333,0 -18.66667,0 -28,0 v 14 c 9.33333,0 18.66667,0 28,0 0,9.33333 0,18.66667 0,28 h 14 c 0,-9.33333 0,-18.66667 0,-28 9.33333,0 18.66667,0 28,0 v -14 c -9.33333,0 -18.66667,0 -28,0 0,-9.33333 0,-18.66667 0,-28 z" transform="scale(0.26458333)" ns1:nodetypes="ccccccccccccc" />
      <ns0:path id="rect841" style="fill:#666666;fill-opacity:1;stroke:none;stroke-width:9.27969;stroke-linecap:butt;stroke-linejoin:miter;stroke-miterlimit:4;stroke-dasharray:none;stroke-dashoffset:0;paint-order:markers fill stroke" d="M 49,49 V 63 H 63 V 49 Z m 28,0 V 63 H 91 V 49 Z m 28,0 v 14 h 14 V 49 Z m 28,0 v 14 h 14 V 49 Z m 28,0 v 14 h 14 V 49 Z m 28,0 v 14 h 14 V 49 Z M 49,77 V 91 H 63 V 77 Z m 140,0 v 14 h 14 V 77 Z M 49,105 v 14 h 14 v -14 z m 140,0 v 14 h 14 V 105 Z M 49,133 v 14 h 14 v -14 z m 140,0 v 14 h 14 V 133 Z M 49,161 v 14 h 14 v -14 z m 0,28 v 14 h 14 v -14 z m 28,0 v 14 h 14 v -14 z m 28,0 v 14 h 14 v -14 z m 28,0 v 14 h 14 v -14 z" transform="scale(0.26458333)" />
    </ns0:g>
  </ns0:g>
  <ns0:g ns2:groupmode="layer" id="layer3" ns2:label="Large Highlight" style="display:inline">
    <ns0:path d="M 9.2255845,63.5 C 6.459986,63.5 4.2333333,61.273348 4.2333333,58.507749 V 33.866667 H 63.5 V 58.507749 C 63.5,61.273348 61.273349,63.5 58.50775,63.5 Z" style="display:inline;opacity:0.055;fill:#ffffff;fill-opacity:1;stroke-width:0.0246944;stroke-miterlimit:4;stroke-dasharray:none;paint-order:stroke fill markers" id="path842" />
  </ns0:g>
</ns0:svg>

<ns0:svg xmlns:ns0="http://www.w3.org/2000/svg" xmlns:ns1="http://sodipodi.sourceforge.net/DTD/sodipodi-0.dtd" xmlns:ns2="http://www.inkscape.org/namespaces/inkscape" ns1:docname="org.gnome.Screenshot.svg" id="svg8" version="1.1" viewBox="0 0 67.733332 67.733335" height="256" width="256">
  <ns0:defs id="defs2" />
  <ns1:namedview ns2:window-maximized="1" ns2:window-y="27" ns2:window-x="1920" ns2:window-height="1016" ns2:window-width="1920" units="px" showgrid="false" ns2:document-rotation="0" ns2:current-layer="g1156" ns2:document-units="px" ns2:cy="127.75" ns2:cx="123.5" ns2:zoom="2" ns2:pageshadow="2" ns2:pageopacity="0.0" borderopacity="1.0" bordercolor="#666666" pagecolor="#ffffff" id="base" ns2:pagecheckerboard="0" />
  <ns0:g ns2:groupmode="layer" id="layer1" ns2:label="Background" style="display:inline">
    <ns0:g ns2:label="Shadow" id="layer10" ns2:groupmode="layer" style="display:inline;opacity:0.4">
      <ns0:path id="path839" style="display:inline;opacity:1;fill:#000000;fill-opacity:1;stroke-width:0.0246944;stroke-miterlimit:4;stroke-dasharray:none;paint-order:stroke fill markers" d="m 4.2333333,34.925001 v 24.641082 c 0,2.765599 2.2266527,4.992251 4.9922512,4.992251 H 58.50775 c 2.765599,0 4.99225,-2.226652 4.99225,-4.992251 V 34.925001 Z" />
    </ns0:g>
    <ns0:g style="display:inline" ns2:label="Colour" id="g1174" ns2:groupmode="layer">
      <ns0:path id="rect1168" style="display:inline;fill:#00b9ff;fill-opacity:1;stroke-width:0.0933332;stroke-miterlimit:4;stroke-dasharray:none;paint-order:stroke fill markers" d="M 34.869141 16 C 24.416485 16 16 24.416483 16 34.869141 L 16 128 L 16 221.13086 C 16 231.58352 24.416485 240 34.869141 240 L 221.13086 240 C 231.58352 240 240 231.58352 240 221.13086 L 240 128 L 240 34.869141 C 240 24.416483 231.58352 16 221.13086 16 L 34.869141 16 z " transform="scale(0.26458333)" />
    </ns0:g>
    <ns0:g ns2:groupmode="layer" id="layer2" ns2:label="Highlight" style="opacity:0.1">
      <ns0:path d="m 9.2257931,4.2333333 c -2.7655986,0 -4.9924598,2.2268608 -4.9924598,4.9924598 v 1.0583329 c 0,-2.7655979 2.2268612,-4.9924597 4.9924598,-4.9924597 H 58.50754 c 2.765599,0 4.99246,2.2268618 4.99246,4.9924597 V 9.2257931 c 0,-2.765599 -2.226861,-4.9924598 -4.99246,-4.9924598 z" style="display:inline;opacity:1;fill:#ffffff;fill-opacity:1;stroke-width:0.0246944;stroke-miterlimit:4;stroke-dasharray:none;paint-order:stroke fill markers" id="path955" />
    </ns0:g>
  </ns0:g>
  <ns0:g ns2:label="Graphic" id="g1156" ns2:groupmode="layer" style="display:inline">
    <ns0:rect style="opacity:1;fill:#ffffff;fill-opacity:1;stroke:none;stroke-width:1.25992;stroke-linecap:butt;stroke-linejoin:miter;stroke-miterlimit:4;stroke-dasharray:none;stroke-dashoffset:0;paint-order:markers fill stroke" id="rect839" width="37.041668" height="37.041668" x="14.2875" y="14.2875" />
    <ns0:g id="g1361" style="fill:#666666">
      <ns0:path id="rect1197" style="fill:#666666;fill-opacity:1;stroke:none;stroke-width:9.27969;stroke-linecap:butt;stroke-linejoin:miter;stroke-miterlimit:4;stroke-dasharray:none;stroke-dashoffset:0;paint-order:markers fill stroke" d="m 189,161 c 0,9.33333 0,18.66667 0,28 -9.33333,0 -18.66667,0 -28,0 v 14 c 9.33333,0 18.66667,0 28,0 0,9.33333 0,18.66667 0,28 h 14 c 0,-9.33333 0,-18.66667 0,-28 9.33333,0 18.66667,0 28,0 v -14 c -9.33333,0 -18.66667,0 -28,0 0,-9.33333 0,-18.66667 0,-28 z" transform="scale(0.26458333)" ns1:nodetypes="ccccccccccccc" />
      <ns0:path id="rect841" style="fill:#666666;fill-opacity:1;stroke:none;stroke-width:9.27969;stroke-linecap:butt;stroke-linejoin:miter;stroke-miterlimit:4;stroke-dasharray:none;stroke-dashoffset:0;paint-order:markers fill stroke" d="M 49 49 L 49 63 L 63 63 L 63 49 L 49 49 z M 77 49 L 77 63 L 91 63 L 91 49 L 77 49 z M 105 49 L 105 63 L 119 63 L 119 49 L 105 49 z M 133 49 L 133 63 L 147 63 L 147 49 L 133 49 z M 161 49 L 161 63 L 175 63 L 175 49 L 161 49 z M 189 49 L 189 63 L 203 63 L 203 49 L 189 49 z M 49 77 L 49 91 L 63 91 L 63 77 L 49 77 z M 189 77 L 189 91 L 203 91 L 203 77 L 189 77 z M 49 105 L 49 119 L 63 119 L 63 105 L 49 105 z M 189 105 L 189 119 L 203 119 L 203 105 L 189 105 z M 49 133 L 49 147 L 63 147 L 63 133 L 49 133 z M 189 133 L 189 147 L 203 147 L 203 133 L 189 133 z M 49 161 L 49 175 L 63 175 L 63 161 L 49 161 z M 49 189 L 49 203 L 63 203 L 63 189 L 49 189 z M 77 189 L 77 203 L 91 203 L 91 189 L 77 189 z M 105 189 L 105 203 L 119 203 L 119 189 L 105 189 z M 133 189 L 133 203 L 147 203 L 147 189 L 133 189 z " transform="scale(0.26458333)" />
    </ns0:g>
  </ns0:g>
  <ns0:g ns2:groupmode="layer" id="layer3" ns2:label="Large Highlight" style="display:inline">
    <ns0:path d="M 9.2255845,63.5 C 6.459986,63.5 4.2333333,61.273348 4.2333333,58.507749 V 33.866667 H 63.5 V 58.507749 C 63.5,61.273348 61.273349,63.5 58.50775,63.5 Z" style="display:inline;opacity:0.055;fill:#ffffff;fill-opacity:1;stroke-width:0.0246944;stroke-miterlimit:4;stroke-dasharray:none;paint-order:stroke fill markers" id="path842" />
  </ns0:g>
</ns0:svg>
